static/favicons/favicon.svg

<svg width="33" height="33" viewBox="0 0 33 33" fill="none" xmlns="http://www.w3.org/2000/svg">
<g filter="url(#filter0_b_614_15862)">
<path fill-rule="evenodd" clip-rule="evenodd" d="M32.7881 16.8359C32.7881 22.9801 29.3249 28.3153 24.2441 30.9961V23.8546H21.2041V25.0706C19.8921 24.0466 18.2281 23.5026 16.4681 23.5026C12.3211 23.5026 9.01215 26.6453 8.799 30.7017C4.01057 27.9368 0.788086 22.7627 0.788086 16.8359C0.788086 7.99938 7.95153 0.835938 16.7881 0.835938C25.6246 0.835938 32.7881 7.99938 32.7881 16.8359ZM23.8455 18.4589L16.696 14.1693L9.54655 18.4589L11.11 21.0648L16.696 17.7132L22.282 21.0648L23.8455 18.4589Z" fill="url(#paint0_linear_614_15862)"/>
<path d="M21.0798 32.2538C21.1612 31.8933 21.2041 31.5136 21.2041 31.1186C21.2041 28.4306 19.2201 26.4466 16.5961 26.4146C13.9401 26.4466 11.9881 28.4306 11.9881 31.1186C11.9881 31.4699 12.0214 31.8092 12.0853 32.1337C13.5723 32.5902 15.1515 32.8359 16.7881 32.8359C18.2747 32.8359 19.714 32.6332 21.0798 32.2538Z" fill="url(#paint1_linear_614_15862)"/>
</g>
<g filter="url(#filter1_b_614_15862)">
<path fill-rule="evenodd" clip-rule="evenodd" d="M8.7666 30.6813C8.77707 30.6873 8.78755 30.6934 8.79803 30.6995C9.01117 26.643 12.3201 23.5003 16.4671 23.5003C18.2271 23.5003 19.8911 24.0443 21.2031 25.0683V23.8523H24.2431V30.9939C24.3002 30.9638 24.357 30.9333 24.4137 30.9025C23.3671 31.4711 22.25 31.9262 21.0789 32.2515C21.1603 31.891 21.2031 31.5113 21.2031 31.1163C21.2031 28.4283 19.2191 26.4443 16.5951 26.4123C13.9391 26.4443 11.9871 28.4283 11.9871 31.1163C11.9871 31.4677 12.0205 31.807 12.0844 32.1314C10.9158 31.7726 9.80425 31.2836 8.7666 30.6813ZM16.695 14.167L23.8445 18.4567L22.281 21.0625L16.695 17.7109L11.1091 21.0625L9.54557 18.4567L16.695 14.167Z" fill="white"/>
</g>
<defs>
<filter id="filter0_b_614_15862" x="-1.40256" y="-1.35471" width="36.3813" height="36.3813" filterUnits="userSpaceOnUse" color-interpolation-filters="sRGB">
<feFlood flood-opacity="0" result="BackgroundImageFix"/>
<feGaussianBlur in="BackgroundImageFix" stdDeviation="1.09532"/>
<feComposite in2="SourceAlpha" operator="in" result="effect1_backgroundBlur_614_15862"/>
<feBlend mode="normal" in="SourceGraphic" in2="effect1_backgroundBlur_614_15862" result="shape"/>
</filter>
<filter id="filter1_b_614_15862" x="6.57595" y="11.9763" width="20.0283" height="22.4663" filterUnits="userSpaceOnUse" color-interpolation-filters="sRGB">
<feFlood flood-opacity="0" result="BackgroundImageFix"/>
<feGaussianBlur in="BackgroundImageFix" stdDeviation="1.09532"/>
<feComposite in2="SourceAlpha" operator="in" result="effect1_backgroundBlur_614_15862"/>
<feBlend mode="normal" in="SourceGraphic" in2="effect1_backgroundBlur_614_15862" result="shape"/>
</filter>
<linearGradient id="paint0_linear_614_15862" x1="16.7881" y1="-19.3909" x2="53.1779" y2="9.3944" gradientUnits="userSpaceOnUse">
<stop stop-color="#EBA864"/>
<stop offset="0.49074" stop-color="#E25412"/>
<stop offset="1" stop-color="#B22259"/>
</linearGradient>
<linearGradient id="paint1_linear_614_15862" x1="16.7881" y1="-19.3909" x2="53.1779" y2="9.3944" gradientUnits="userSpaceOnUse">
<stop stop-color="#EBA864"/>
<stop offset="0.49074" stop-color="#E25412"/>
<stop offset="1" stop-color="#B22259"/>
</linearGradient>
</defs>
</svg>

<svg xmlns="http://www.w3.org/2000/svg" width="33" height="33" fill="none"><g filter="url(#a)"><path fill="url(#b)" fill-rule="evenodd" d="M32.788 16.836c0 6.144-3.463 11.48-8.544 14.16v-7.141h-3.04v1.216c-1.312-1.024-2.976-1.568-4.736-1.568-4.147 0-7.456 3.142-7.669 7.199-4.788-2.765-8.01-7.94-8.01-13.866 0-8.837 7.163-16 16-16 8.836 0 16 7.163 16 16Zm-8.942 1.623-7.15-4.29-7.15 4.29 1.564 2.606 5.586-3.352 5.586 3.352 1.564-2.606Z" clip-rule="evenodd"/><path fill="url(#c)" d="M21.08 32.254c.081-.36.124-.74.124-1.135 0-2.688-1.984-4.672-4.608-4.704-2.656.032-4.608 2.016-4.608 4.704 0 .35.033.69.097 1.015a16 16 0 0 0 4.703.702c1.487 0 2.926-.203 4.292-.582Z"/></g><g filter="url(#d)"><path fill="#fff" fill-rule="evenodd" d="m8.767 30.681.031.018c.213-4.056 3.522-7.199 7.67-7.199 1.76 0 3.423.544 4.735 1.568v-1.216h3.04v7.142l.17-.091a15.896 15.896 0 0 1-3.334 1.349c.081-.361.124-.74.124-1.136 0-2.688-1.984-4.672-4.608-4.704-2.656.032-4.608 2.016-4.608 4.704 0 .352.034.691.097 1.015a15.91 15.91 0 0 1-3.317-1.45Zm7.928-16.514 7.15 4.29-1.564 2.605-5.586-3.351-5.586 3.352-1.563-2.606 7.149-4.29Z" clip-rule="evenodd"/></g><defs><linearGradient id="b" x1="16.788" x2="53.178" y1="-19.391" y2="9.394" gradientUnits="userSpaceOnUse"><stop stop-color="#EBA864"/><stop offset=".491" stop-color="#E25412"/><stop offset="1" stop-color="#B22259"/></linearGradient><linearGradient id="c" x1="16.788" x2="53.178" y1="-19.391" y2="9.394" gradientUnits="userSpaceOnUse"><stop stop-color="#EBA864"/><stop offset=".491" stop-color="#E25412"/><stop offset="1" stop-color="#B22259"/></linearGradient><filter id="a" width="36.381" height="36.381" x="-1.403" y="-1.355" color-interpolation-filters="sRGB" filterUnits="userSpaceOnUse"><feFlood flood-opacity="0" result="BackgroundImageFix"/><feGaussianBlur in="BackgroundImageFix" stdDeviation="1.095"/><feComposite in2="SourceAlpha" operator="in" result="effect1_backgroundBlur_614_15862"/><feBlend in="SourceGraphic" in2="effect1_backgroundBlur_614_15862" result="shape"/></filter><filter id="d" width="20.028" height="22.466" x="6.576" y="11.976" color-interpolation-filters="sRGB" filterUnits="userSpaceOnUse"><feFlood flood-opacity="0" result="BackgroundImageFix"/><feGaussianBlur in="BackgroundImageFix" stdDeviation="1.095"/><feComposite in2="SourceAlpha" operator="in" result="effect1_backgroundBlur_614_15862"/><feBlend in="SourceGraphic" in2="effect1_backgroundBlur_614_15862" result="shape"/></filter></defs></svg>
